X:1
T:Title
%%score { 1 | 2 }
L:1/8
M:6/8
K:Ab
V:1 treble nm="Grand Piano"
V:2 bass 
V:1
 z3 z2[Q:1/4=90] [CE] | [CA]2 [CA] [EA]2 B | c2 d e2 c | [GB]2 [GB] [GB]2 [EAc] | %4
[M:5/8] [EBd]2 [EAc] [EGB]2 |[M:1/8] [G,E] |[M:3/4] [CA]2 [CA] [EA]2 B | c2 d e2 [FAd] | %8
 [EAc]2 [DEB] [CEA]2 [B,DG] |[M:5/8] [A,CA]-[A,CA]- [A,CA]3 |[M:1/8] [Ac] | %11
[M:3/4] [ce]2 [ce] [Ac]2 [ce] | [df]2 [df] [ce]2 [Ac] | [ce]2 [Ac] [CA]2 [EAc] | %14
[M:5/8] [EBd]2 [EAc] [EGB]2 |[M:1/8] [G,E] |[M:3/4] [CA]2 [CA] [EA]2 B | c2 d e2 [FAd] | %18
 [EAc]2 [DEB] [CEA]2 [B,DG] |[M:13/8] [A,CA]-[A,CA]- [A,CA]3 z z z z z z z2 |] %20
V:2
 z3 z2 [A,,A,] | [A,,A,]2 [A,,A,] [C,A,]2 [E,G,E] | [A,E]2 [A,B,E] [A,CE]2 [A,EA] | %3
 [E,E]2 [E,E] [E,E]2 A, |[M:5/8] G,2 A, E,2 |[M:1/8] D, |[M:3/4] [A,,A,]2 [A,,A,] [C,A,]2 [E,G,E] | %7
 [A,E]2 [A,B,E] [A,CE]2 D, | E,2 E, E,2 E, |[M:5/8] A,,-A,,- A,,3 |[M:1/8] A, | %11
[M:3/4] A,2 A, A,2 A, | [D,A,]2 [D,A,] A,2 A, | A,2 A, A,2 A, |[M:5/8] G,2 A, E,2 |[M:1/8] D, | %16
[M:3/4] [A,,A,]2 [A,,A,] [C,A,]2 [E,G,E] | [A,E]2 [A,B,E] [A,CE]2 D, | E,2 E, E,2 E, | %19
[M:13/8] A,,-A,,- A,,3 z z z z z z z2 |] %20

